22x22/apps/gladish.svg

<svg xmlns="http://www.w3.org/2000/svg" width="22" height="22" version="1">
 <path style="opacity:0.2" d="m 11,10.5 c -5.54,0 -10,2.453 -10,5.5 0,3.047 4.46,5.5 10,5.5 5.54,0 10,-2.453 10,-5.5 0,-3.047 -4.46,-5.5 -10,-5.5 z"/>
 <path style="fill:#f4f4f7" d="M 11,10 C 5.46,10 1,12.453 1,15.5 1,18.547 5.46,21 11,21 16.54,21 21,18.547 21,15.5 21,12.453 16.54,10 11,10 Z"/>
 <path style="opacity:0.2;fill:#f4f4f7" d="M 11,10 C 5.46,10 1,12.453001 1,15.5 1,15.58376 1.00407,15.667176 1.010742,15.75 1.2467225,12.819886 5.612291,10.5 11,10.5 c 5.387709,0 9.753277,2.319886 9.989258,5.25 C 20.995928,15.667176 21,15.58376 21,15.5 21,12.453001 16.54,10 11,10 Z"/>
 <path style="opacity:0.1" d="m 11,11.5 c -3.878,0 -7,1.6725 -7,3.75 0,2.0775 3.122,3.75 7,3.75 3.878,0 7,-1.6725 7,-3.75 0,-2.0775 -3.122,-3.75 -7,-3.75 z"/>
 <path style="opacity:0.1" d="m 14.302927,1.5019759 c -0.220882,-0.012209 -0.486051,0.036156 -0.486051,0.036156 0,0 -0.816876,0.075528 -0.816876,0.9419987 V 13.870108 L 14.986891,15.5 V 5.9940205 c 1.07561,-0.04555 3.593195,0.896073 2.922716,4.4960315 C 21.304336,5.204769 15.746552,5.01102 15.108161,2.1469129 15.029229,1.7650134 14.76186,1.6477605 14.49696,1.5381315 14.444509,1.516425 14.376554,1.5060459 14.302927,1.5019759 Z"/>
 <path style="fill:#1b7b34" d="m 14.302927,1.0019759 c -0.220882,-0.01221 -0.486051,0.036156 -0.486051,0.036156 0,0 -0.816876,0.075528 -0.816876,0.9419987 V 13.370108 L 14.986891,15 V 5.4940205 c 1.07561,-0.04555 3.593195,0.896073 2.922716,4.4960315 C 21.304336,4.704769 15.746552,4.51102 15.108161,1.6469129 15.029229,1.2650134 14.76186,1.1477605 14.49696,1.0381315 14.444509,1.016425 14.376554,1.0060459 14.302927,1.0019759 Z"/>
 <ellipse style="opacity:0.1" cx="11.5" cy="15.5" rx="3.5" ry="2"/>
 <ellipse style="fill:#529c0a" cx="11.5" cy="15" rx="3.5" ry="2"/>
 <path style="opacity:0.1;fill:#f4f4f7" d="m 14.302735,1.0019531 c -0.220883,-0.01221 -0.486329,0.036133 -0.486329,0.036133 0,0 -0.816406,0.075912 -0.816406,0.9423828 v 0.5 c 0,-0.866471 0.816406,-0.9423828 0.816406,-0.9423828 0,0 0.265446,-0.048342 0.486329,-0.036133 0.07363,0.00407 0.141885,0.014426 0.194336,0.036133 0.2649,0.109629 0.532395,0.226499 0.611328,0.6083985 0.474274,2.1278069 3.66138,2.7836859 3.877929,5.1464844 C 19.207955,4.5119445 15.614474,3.9169643 15.108399,1.6464844 15.029466,1.2645849 14.761971,1.147715 14.497071,1.038086 14.44462,1.0163794 14.376362,1.0060231 14.302735,1.0019531 Z m 3.705077,8.0937499 c -0.01234,0.280146 -0.03879,0.57322 -0.09863,0.894532 0.0325,-0.05061 0.05897,-0.09778 0.08984,-0.147461 0.0236,-0.267916 0.02148,-0.512464 0.0088,-0.747071 z"/>
</svg>

<svg xmlns="http://www.w3.org/2000/svg" width="22" height="22" version="1"><path style="opacity:.2" d="M11 10.5c-5.54 0-10 2.453-10 5.5s4.46 5.5 10 5.5 10-2.453 10-5.5-4.46-5.5-10-5.5z"/><path style="fill:#f4f4f7" d="M11 10c-5.54 0-10 2.453-10 5.5S5.46 21 11 21s10-2.453 10-5.5S16.54 10 11 10z"/><path style="opacity:.2;fill:#f4f4f7" d="M11 10c-5.54 0-10 2.453-10 5.5 0 .084.004.167.01.25.237-2.93 4.602-5.25 9.99-5.25s9.753 2.32 9.99 5.25c.006-.083.01-.166.01-.25 0-3.047-4.46-5.5-10-5.5z"/><path style="opacity:.1" d="M11 11.5c-3.878 0-7 1.673-7 3.75C4 17.328 7.122 19 11 19s7-1.673 7-3.75c0-2.078-3.122-3.75-7-3.75z"/><path style="opacity:.1" d="M14.303 1.502c-.221-.012-.486.036-.486.036S13 1.614 13 2.48v11.39l1.987 1.63V5.994c1.076-.046 3.593.896 2.923 4.496 3.394-5.285-2.163-5.479-2.802-8.343-.079-.382-.346-.5-.611-.609a.613.613 0 0 0-.194-.036z"/><path style="fill:#1b7b34" d="M14.303 1.002c-.221-.012-.486.036-.486.036S13 1.114 13 1.98v11.39L14.987 15V5.494c1.076-.046 3.593.896 2.923 4.496 3.394-5.285-2.163-5.479-2.802-8.343-.079-.382-.346-.5-.611-.609a.613.613 0 0 0-.194-.036z"/><ellipse style="opacity:.1" cx="11.5" cy="15.5" rx="3.5" ry="2"/><ellipse style="fill:#529c0a" cx="11.5" cy="15" rx="3.5" ry="2"/><path style="opacity:.1;fill:#f4f4f7" d="M14.303 1.002c-.221-.012-.487.036-.487.036S13 1.114 13 1.98v.5c0-.866.816-.942.816-.942s.266-.048.487-.036a.615.615 0 0 1 .194.036c.265.11.532.227.611.608.475 2.128 3.662 2.784 3.878 5.147.222-2.781-3.372-3.376-3.878-5.647-.079-.381-.346-.498-.61-.608a.615.615 0 0 0-.195-.036zm3.705 8.094a6.32 6.32 0 0 1-.099.894c.033-.05.06-.098.09-.147.024-.268.022-.513.009-.747z"/></svg>
